X:92
T:Suite in D minor - Prélude
C:Lully, J.B.
M:4/4
L:1/8
Q:1/4=76
K:Dmin
|:A2|d4 de f2|e2 dc B2 A2|G4 GA B2|A2 GF E2 D2|
F4 FG A2|G2 FE D2 C2|D4 EF G2|D4 D2:|

